public/train-bullets/s.svg

<?xml version="1.0" standalone="no"?>
<!DOCTYPE svg PUBLIC "-//W3C//DTD SVG 1.1//EN" "http://www.w3.org/Graphics/SVG/1.1/DTD/svg11.dtd">
<svg width="100%" height="100%" viewBox="0 0 90 90" version="1.1" xmlns="http://www.w3.org/2000/svg" xmlns:xlink="http://www.w3.org/1999/xlink" xml:space="preserve" style="fill-rule:evenodd;clip-rule:evenodd;stroke-linejoin:round;stroke-miterlimit:1.41421;">
    <g id="S">
        <circle cx="45" cy="45" r="45" style="fill:rgb(128,129,131);"/>
        <path d="M35.1042,54.1797C35.408,56.3715 36.0048,58.01 36.8945,59.0951C38.5221,61.0699 41.3108,62.0573 45.2604,62.0573C47.6259,62.0573 49.5464,61.7969 51.0221,61.276C53.8216,60.2778 55.2214,58.4223 55.2214,55.7096C55.2214,54.1254 54.5269,52.8993 53.138,52.0313C51.7491,51.1849 49.5681,50.4362 46.5951,49.7852L41.5169,48.6458C36.5256,47.5174 33.0751,46.2912 31.1654,44.9674C27.9319,42.7539 26.3151,39.2925 26.3151,34.5833C26.3151,30.2865 27.8776,26.7166 31.0026,23.8737C34.1276,21.0308 38.7174,19.6094 44.7721,19.6094C49.8286,19.6094 54.1417,20.9494 57.7116,23.6296C61.2815,26.3097 63.1532,30.1997 63.3268,35.2995L53.6914,35.2995C53.5178,32.4132 52.2591,30.3624 49.9154,29.1471C48.3529,28.3442 46.4106,27.9427 44.0885,27.9427C41.5061,27.9427 39.4444,28.4635 37.9036,29.5052C36.3628,30.5469 35.5924,32.0009 35.5924,33.8672C35.5924,35.5816 36.352,36.862 37.8711,37.7083C38.8477,38.2726 40.931,38.9345 44.1211,39.694L52.3893,41.6797C56.0135,42.5477 58.7478,43.7088 60.5924,45.1628C63.457,47.4197 64.8893,50.6858 64.8893,54.9609C64.8893,59.3446 63.2129,62.985 59.86,65.8822C56.5072,68.7793 51.7708,70.2279 45.651,70.2279C39.401,70.2279 34.4857,68.801 30.9049,65.9473C27.3242,63.0935 25.5339,59.171 25.5339,54.1797L35.1042,54.1797Z" style="fill:white;fill-rule:nonzero;"/>
    </g>
</svg>

<svg xmlns="http://www.w3.org/2000/svg" xml:space="preserve" style="fill-rule:evenodd;clip-rule:evenodd;stroke-linejoin:round;stroke-miterlimit:1.41421" viewBox="0 0 90 90"><circle cx="45" cy="45" r="45" style="fill:#808183"/><path d="M35.104 54.18q.456 3.287 1.79 4.915 2.442 2.962 8.366 2.962 3.548 0 5.762-.781 4.2-1.498 4.2-5.566 0-2.376-2.084-3.679-2.084-1.27-6.543-2.246l-5.078-1.14q-7.487-1.692-10.352-3.678-4.85-3.32-4.85-10.384 0-6.444 4.688-10.71 4.687-4.264 13.77-4.264 7.584 0 12.939 4.02 5.354 4.02 5.615 11.67H53.69q-.26-4.33-3.776-6.152-2.343-1.204-5.826-1.204-3.875 0-6.185 1.562-2.312 1.563-2.312 4.362 0 2.572 2.28 3.841 1.464.847 6.25 1.986l8.267 1.986q5.437 1.302 8.203 3.483 4.297 3.385 4.297 9.798 0 6.576-5.029 10.921-5.03 4.346-14.209 4.346-9.375 0-14.746-4.28-5.37-4.281-5.371-11.768z" style="fill:#fff;fill-rule:nonzero"/></svg>
